X: 1
T:Hearts Ease
R:Jig
M:6/8
L:1/8
%Q:100
H:Richard Dering's
H:catch "Cries of London" is set to the A strain.
H:Hearts-ease in
H:16th century herbal culture was the little wild pansy, known today as
H:Johnny-jump-up.  It was also called "Love in Idleness".
P: 3 times
K:GDor
|: d | "Gm"G>AB A2G | "D7"^F2G A2D | "Gm"G2A B2c | "D7"d3-d2 :: d | "F"ABc cdc |
| "F"f2c c2A | "Bb"B2A Bc2 | d3-d2 d | "Cm"c2B "D7"A>Bc | "Gm"B2A "D7"dAB | "Cm"A2G "D7"^F>EF | "Gm"G2 :|
